X:1
T:Title
%%score { 1 | ( 2 3 ) }
L:1/8
Q:1/4=100
M:4/4
K:Bb
V:1 treble nm="Grand Piano"
V:2 bass 
V:3 bass 
V:1
 [DF]2 [DB]2 [Fd]>[Ec] [DB]>[Ec] | [GB]3 A G4 | A2 G2 F>F G>F | [B,DF]4 [B,D]4 | %4
w: T.~E.~Perkins * * * * *||||
 [DF]2 [DB]2 [Fd]>[Ec] [DB]>[Ec] | [GB]3 A G4 | A2 B2 c>A [=EG]>[EA] | F6 z2 | c2 c2 c>B c>d | %9
w: |||||
 [DB]4 [DF]4 | [EG]2 [FB]2 [Ge]>[Fd] [Ec]>[GB] | [Fc]6 z2 | [DF]2 [DB]2 [Fd]>[Ec] [DB]>[Ec] | %13
w: ||||
 [GB]3 A G4 | F2 G2 A>B c>d | [DB]6 z2 |] %16
w: |||
V:2
 [B,,B,]2 [B,,B,]2 [B,,B,]>[B,,B,] [B,,B,]>[B,,B,] | z2 z F [E,B,E]4 | %2
 [F,C]2 [F,B,]2 [F,A,]>[F,A,C] [F,B,E]>[F,A,E] | z4 F,4 | %4
 [B,,B,]2 [B,,B,]2 [B,,B,]>[B,,B,] [B,,B,]>[B,,B,] | z2 z F [E,B,E]4 | %6
 [F,F]2 [F,B,F]2 [F,A,F]>[F,CF] [C,B,]>[C,C] | [F,A,]6 z2 | %8
 [F,A,E]2 [F,A,E]2 [F,A,E]>[F,B,D] [F,A,E]>[F,A,F] | [B,,B,]4 [B,,B,]4 | %10
 [E,B,]2 [D,B,]2 [C,C]>[D,=B,] [E,C]>[E,C] | [F,A,]6 z2 | %12
 [B,,B,]2 [B,,B,]2 [B,,B,]>[B,,B,] [B,,B,]>[B,,B,] | z2 z F [E,B,E]4 | %14
 [F,A,E]2 [F,B,E]2 [F,C]>[E,B,D] [F,A,E]>[F,A,F] | [B,,B,]6 z2 |] %16
V:3
 x8 | [E,B,]4 z4 | x8 | B,,8 | x8 | [E,B,]4 z4 | x8 | x8 | x8 | x8 | x8 | x8 | x8 | [E,B,]4 z4 | %14
 x8 | x8 |] %16

